src/assets/Imgs/profile/Github2.svg

<svg fill="none" height="32" viewBox="0 0 32 32" width="32" xmlns="http://www.w3.org/2000/svg"><rect fill="#fff" height="32" rx="8" width="32"/><path d="m15.9982 2c-7.7297 0-13.99819 6.42679-13.99819 14.3548-.00316 3.0089.91965 5.9426 2.638 8.3867 1.71836 2.4441 4.14535 4.2749 6.93799 5.2336.7.1323.9555-.311.9555-.6916 0-.3414-.0122-1.2439-.0192-2.4414-3.8938.8668-4.7163-1.9248-4.7163-1.9248-.63525-1.6585-1.55399-2.0999-1.55399-2.0999-1.27225-.8901.0945-.8722.0945-.8722 1.40524.1019 2.14374 1.4798 2.14374 1.4798 1.2495 2.1929 3.27775 1.5602 4.07575 1.1921.126-.9276.4883-1.5603.889-1.9195-3.108-.3628-6.377-1.5942-6.377-7.0934 0-1.5674.546-2.8488 1.442-3.8532-.14525-.3628-.62475-1.82296.1365-3.79782 0 0 1.176-.38604 3.85 1.47087 1.1423-.31882 2.3211-.48109 3.5053-.48255 1.1842.0024 2.3629.16527 3.5052.48433 2.6722-1.8569 3.8465-1.47087 3.8465-1.47087.763 1.97665.2835 3.43504.14 3.79784.8977 1.0044 1.4385 2.2858 1.4385 3.8532 0 5.5135-3.2725 6.727-6.391 7.0827.5022.4432.9502 1.3189.9502 2.6575 0 1.9195-.0175 3.4672-.0175 3.9373 0 .3842.252.831.9625.6898 2.79-.961 5.214-2.7925 6.9299-5.2359 1.716-2.4435 2.6373-5.3756 2.6339-8.3826 0-7.92801-6.2685-14.3548-14.0018-14.3548z" fill="#0d0c0f"/></svg>

<svg width="32" height="32" viewBox="0 0 32 32" fill="none" xmlns="http://www.w3.org/2000/svg">
<g id="Github">
<rect id="Rectangle 2182" width="32" height="32" rx="8" fill="white"/>
<path id="Vector" d="M15.9982 2C8.2685 2 2.00001 8.42679 2.00001 16.3548C1.99685 19.3637 2.91966 22.2974 4.63801 24.7415C6.35637 27.1856 8.78336 29.0164 11.576 29.9751C12.276 30.1074 12.5315 29.6641 12.5315 29.2835C12.5315 28.9421 12.5193 28.0396 12.5123 26.8421C8.6185 27.7089 7.796 24.9173 7.796 24.9173C7.16075 23.2588 6.24201 22.8174 6.24201 22.8174C4.96976 21.9273 6.33651 21.9452 6.33651 21.9452C7.74175 22.0471 8.48025 23.425 8.48025 23.425C9.72975 25.6179 11.758 24.9852 12.556 24.6171C12.682 23.6895 13.0443 23.0568 13.445 22.6976C10.337 22.3348 7.068 21.1034 7.068 15.6042C7.068 14.0368 7.614 12.7554 8.51 11.751C8.36475 11.3882 7.88525 9.92804 8.6465 7.95318C8.6465 7.95318 9.8225 7.56714 12.4965 9.42405C13.6388 9.10523 14.8176 8.94296 16.0018 8.9415C17.186 8.9439 18.3647 9.10677 19.507 9.42583C22.1792 7.56893 23.3535 7.95496 23.3535 7.95496C24.1165 9.93161 23.637 11.39 23.4935 11.7528C24.3912 12.7572 24.932 14.0386 24.932 15.606C24.932 21.1195 21.6595 22.333 18.541 22.6887C19.0432 23.1319 19.4912 24.0076 19.4912 25.3462C19.4912 27.2657 19.4737 28.8134 19.4737 29.2835C19.4737 29.6677 19.7257 30.1145 20.4362 29.9733C23.2262 29.0123 25.6502 27.1808 27.3661 24.7374C29.0821 22.2939 30.0034 19.3618 30 16.3548C30 8.42679 23.7315 2 15.9982 2Z" fill="#0D0C0F"/>
</g>
</svg>
